src/assets/images/currencies/eos.svg

<svg height="32" viewBox="0 0 32 32" width="32" xmlns="http://www.w3.org/2000/svg"><path d="m16.403694 8c.0617733.00460294.122946.02799499.1743807.07316408l.0478502.05253873 3.4153617 4.66802979c.0185388.0260273.0289202.046109.0370234.0671234l.0134018.0447067 1.6523462 7.5460483.0065532.040647.0004158.0354214-.0018446.0277202-.0141104.0606296-.0265613.0551932-.0161656.0269206-.0338319.0374992-.031254.0289975-5.0862645 3.1873553c-.0373559.0234041-.0760808.0376883-.1145526.0441106l-.0573152.0038944-.0449547-.0038937c-.0192364-.0032111-.0385361-.0083877-.0576963-.0156871l-.0568594-.0284242-5.0862646-3.1873553-.0388005-.0347433c-.0344682-.0384-.0556138-.0746894-.0690122-.1138672l-.0141105-.0606296-.0014287-.0631416.0065476-.0406216 1.6516786-7.5460483.0134011-.0447159.0138367-.0307745.0250579-.0404621 3.4141813-4.66395593c.0585745-.08001591.1398707-.11954932.2222326-.12567967zm3.9673838 12.8250608h-2.7585156l-.6874656 2.1585457zm-5.2343531 0h-2.7585155l3.4459811 2.1585457zm1.829716 0h-1.1835945l.5913165 1.8585607zm-3.1431117-4.1238318-1.9893233 3.508478h3.106575zm2.5517952-4.5026589-2.1383544 3.7728878 1.3499324 4.2382491h1.5758825l1.3499324-4.240172zm2.5508337 4.5016975-1.1172517 3.5094394h3.106575zm-5.9122037-2.5412188-.9711051 4.4363161 1.525885-2.6931343zm6.7217785-.001923-.5547799 1.7431819 1.5258851 2.6940957zm-3.6709699-4.90840782-2.765246 3.77769522.6826581 2.1460463 2.0825879-3.6748158zm.6201613-.00096149v2.24796421l2.0825879 3.6748158.6826581-2.1441233z" fill="#ff9580" fill-rule="evenodd"/></svg>

<svg xmlns="http://www.w3.org/2000/svg" width="32" height="32" viewBox="0 0 32 32">
  <path fill="#FF9580" fill-rule="evenodd" d="M16.403694,8 C16.4654673,8.00460294 16.52664,8.02799499 16.5780747,8.07316408 L16.6259249,8.12570281 L20.0412866,12.7937326 C20.0598254,12.8197599 20.0702068,12.8398416 20.07831,12.860856 L20.0917118,12.9055627 L21.744058,20.451611 L21.7506112,20.492258 L21.751027,20.5276794 L21.7491824,20.5553996 L21.735072,20.6160292 L21.7085107,20.6712224 L21.6923451,20.698143 L21.6585132,20.7356422 L21.6272592,20.7646397 L16.5409947,23.951995 C16.5036388,23.9753991 16.4649139,23.9896833 16.4264421,23.9961056 L16.3691269,24 L16.3241722,23.9961063 C16.3049358,23.9928952 16.2856361,23.9877186 16.2664759,23.9804192 L16.2096165,23.951995 L11.1233519,20.7646397 L11.0845514,20.7298964 C11.0500832,20.6914964 11.0289376,20.655207 11.0155392,20.6160292 L11.0014287,20.5553996 L11,20.492258 L11.0065476,20.4516364 L12.6582262,12.9055881 L12.6716273,12.8608722 L12.685464,12.8300977 L12.7105219,12.7896356 L16.1247032,8.12567967 C16.1832777,8.04566376 16.2645739,8.00613035 16.3469358,8 L16.403694,8 Z M20.3710778,20.8250608 L17.6125622,20.8250608 L16.9250966,22.9836065 L20.3710778,20.8250608 Z M15.1367247,20.8250608 L12.3782092,20.8250608 L15.8241903,22.9836065 L15.1367247,20.8250608 Z M16.9664407,20.8250608 L15.7828462,20.8250608 L16.3741627,22.6836215 L16.9664407,20.8250608 Z M13.823329,16.701229 L11.8340057,20.209707 L14.9405807,20.209707 L13.823329,16.701229 Z M16.3751242,12.1985701 L14.2367698,15.9714579 L15.5867022,20.209707 L17.1625847,20.209707 L18.5125171,15.969535 L16.3751242,12.1985701 Z M18.9259579,16.7002676 L17.8087062,20.209707 L20.9152812,20.209707 L18.9259579,16.7002676 Z M13.0137542,14.1590488 L12.0426491,18.5953649 L13.5685341,15.9022306 L13.0137542,14.1590488 Z M19.7355327,14.1571258 L19.1807528,15.9003077 L20.7066379,18.5944034 L19.7355327,14.1571258 Z M16.0645628,9.24871798 L13.2993168,13.0264132 L13.9819749,15.1724595 L16.0645628,11.4976437 L16.0645628,9.24871798 Z M16.6847241,9.24775649 L16.6847241,11.4957207 L18.767312,15.1705365 L19.4499701,13.0264132 L16.6847241,9.24775649 Z"/>
</svg>
